X: 428
T: Liuxia yiyanyan liaogege
L: 1/16
M: 2/4
K: F
A2 F G A f2 A [I:setbarnb 1]| 
F G A G F D C2 | 
A2 c2 G F2 D | 
G8 | 
A2 F G A f2 A | 
F G A G F D C2 | 
A2> c2 G F2 D | 
C8 |]

@@@ Tune index: 9302
